modules/hawcons-stroke/icons/icon-17-medal.svg

<?xml version="1.0" encoding="UTF-8" standalone="no"?>
<svg width="32px" height="32px" viewBox="0 0 32 32" version="1.1" xmlns="http://www.w3.org/2000/svg" xmlns:xlink="http://www.w3.org/1999/xlink" xmlns:sketch="http://www.bohemiancoding.com/sketch/ns">
    <!-- Generator: Sketch 3.0.3 (7891) - http://www.bohemiancoding.com/sketch -->
    <title>icon 17 medal</title>
    <desc>Created with Sketch.</desc>
    <defs></defs>
    <g id="Page-1" stroke="none" stroke-width="1" fill="none" fill-rule="evenodd" sketch:type="MSPage">
        <g id="icon-17-medal" sketch:type="MSArtboardGroup" fill="#929292">
            <path d="M19,2 L14,2 L14,2 L14,16.4267642 C14.7819473,16.1503855 15.6234114,16 16.5,16 C17.3765886,16 18.2180527,16.1503855 19,16.4267642 L19,2 L19,2 Z M20,2 L23,2 L23,14.0100098 L21.6306388,18.029451 C21.1436181,17.5725093 20.5955567,17.1798592 20,16.8650465 L20,2 L20,2 L20,2 Z M13,2 L10,2 L10,14.0100098 L11.3693612,18.029451 L11.3693612,18.029451 C11.8563819,17.5725093 12.4044433,17.1798592 13,16.8650465 L13,2 L13,2 Z M10.616202,18.8486061 L9,14 L9,1 L24,1 L24,14 L22.383798,18.8486061 C23.3957857,20.1269884 24,21.7429333 24,23.5 C24,27.6421358 20.6421358,31 16.5,31 C12.3578642,31 9,27.6421358 9,23.5 C9,21.7429333 9.60421426,20.1269884 10.616202,18.8486061 L10.616202,18.8486061 L10.616202,18.8486061 Z M16.5,30 C20.0898511,30 23,27.0898511 23,23.5 C23,19.9101489 20.0898511,17 16.5,17 C12.9101489,17 10,19.9101489 10,23.5 C10,27.0898511 12.9101489,30 16.5,30 L16.5,30 Z M16.5,25.9230769 L13.7307692,28 L14.5,24.5384617 L12,22 L15.5,22 L16.5,19 L17.5,22 L21,22 L18.5,24.5384617 L19.5,28 L16.5,25.9230769 L16.5,25.9230769 Z" id="medal" sketch:type="MSShapeGroup"></path>
        </g>
    </g>
</svg>

<svg width="32" height="32" xmlns="http://www.w3.org/2000/svg"><path d="M19 2h-5v14.427A7.488 7.488 0 0 1 16.5 16c.877 0 1.718.15 2.5.427V2zm1 0h3v12.01l-1.37 4.02A7.52 7.52 0 0 0 20 16.864V2zm-7 0h-3v12.01l1.37 4.02A7.52 7.52 0 0 1 13 16.864V2zm-2.384 16.849L9 14V1h15v13l-1.616 4.849a7.5 7.5 0 1 1-11.768 0zM16.5 30a6.5 6.5 0 1 0 0-13 6.5 6.5 0 0 0 0 13zm0-4.077L13.73 28l.77-3.462L12 22h3.5l1-3 1 3H21l-2.5 2.538 1 3.462-3-2.077z" fill="#929292" fill-rule="evenodd"/></svg>
